X:1
T:Gordon Stewart Forbes (H.E.I.C.S.)
T:Gordon Stewart Forbes (H.E.I.C.S.)
T:Alexander Walker
C:Alexander Walker
L:1/8
M:6/8
K:Emin
V:1 treble 
V:1
 D | B,2 E EDE | G2 A B2 c | d2 B ABG | F2 D D2 A, | B,2 E EDE | G2 A B2 c | d2 B BAB | G2 E E2 :| %9
 B | eBe g2 e | dBd G2 A | B2 G d2 B | A2 D D2 d | eBe g2 e | dBd G2 A | BGB AFA | G2 E E2 d | %18
 eBe g2 e | ded G2 A | BGB ABG | FGE FED | B,2 E EDE | G2 A B2 e | edB BAF | G2 E !fermata!E2 || %26

